src/pos-icons/pound.svg

<svg height="24" viewBox="0 0 24 24" width="24" xmlns="http://www.w3.org/2000/svg"><path d="m5.41 21 .71-4h-4l.35-2h4l1.06-6h-4l.35-2h4l.71-4h2l-.71 4h6l.71-4h2l-.71 4h4l-.35 2h-4l-1.06 6h4l-.35 2h-4l-.71 4h-2l.71-4h-6l-.71 4zm4.12-12-1.06 6h6l1.06-6z"/></svg>

<?xml version="1.0" encoding="UTF-8"?><!DOCTYPE svg PUBLIC "-//W3C//DTD SVG 1.1//EN" "http://www.w3.org/Graphics/SVG/1.1/DTD/svg11.dtd"><svg xmlns="http://www.w3.org/2000/svg" xmlns:xlink="http://www.w3.org/1999/xlink" version="1.1" id="mdi-pound" width="24" height="24" viewBox="0 0 24 24"><path d="M5.41,21L6.12,17H2.12L2.47,15H6.47L7.53,9H3.53L3.88,7H7.88L8.59,3H10.59L9.88,7H15.88L16.59,3H18.59L17.88,7H21.88L21.53,9H17.53L16.47,15H20.47L20.12,17H16.12L15.41,21H13.41L14.12,17H8.12L7.41,21H5.41M9.53,9L8.47,15H14.47L15.53,9H9.53Z" /></svg>
